X: 9
T:L'inconnu de Limoise (Heintzen)
C:Trad 1, 87
M:3/4
L:1/8
K:C
G/ cd|:e2-ec fd|e2-ee fg|f2-fe dc|G2-GG cd|\
e2-ec fd|e2-ee fg|f2-fe dc|1 d2-dG cd:|2 d2-de fg||
|:a2 c'b ab|g2-gf ed|cB cd (3edc|G2-Gc cB|\
A2-AB cd|c2B2A2|1 B2-BA Bc|d2-de fg:|2 BA Bc de|c6||
